X: 4
T: Missa L'homme arm\'e / Sanctus
N: Derived from Bus1001d-Missa_Lhomme_arme-Sanctus.krn
C: Antoine Busnoys
%%abc-version 2.0
%%abcx-abcm2ps-target-version 5.9.1 (29 Sep 2008)
%%abc-creator hum2abc beta
%%abcx-conversion-date 2019/02/16 20:26:06
%%abc-edited-by Jesse Rodin
%%abc-edited-by Will Watson
%%abcx-initial-encoding-date 2012/11/20/
%%humdrum-veritas 4032165008
%%humdrum-veritas-data 1107010239
%%linebreak <none>
%%barnumbers 0
L: 1/4
M: 3/1
Q: 1/2=120
%%staves [1 2 3 4]
V: 1 clef=treble
V: 2 clef=treble-8
V: 3 clef=treble-8
V: 4 clef=bass
K: F
[V:1] G12- | 
[V:2] G8G4 | 
[V:3] z12 :
[V:4] z12 | 
[V:1] G4A6G2 | 
[V:2] c8c4 | 
[V:3] z12 :
[V:4] z12 | 
[V:1] G4c6B2 | 
[V:2] B4A6G2 | 
[V:3] z12 | 
[V:4] z12 | 
[V:1] B4c2d3cA2 | 
[V:2] G4z4f4 | 
[V:3] z12 :
[V:4] z12 | 
[V:1] G2B3Ac3BAG | 
[V:2] g3fg2a3ge2 | 
[V:3] z12 :
[V:4] z12 | 
[V:1] F2A3GE2D4 | 
[V:2] d4z4B4 | 
[V:3] z12 | 
[V:4] z12 | 
[V:1] z2E4D2F4 | 
[V:2] c3Bc2d3cA2 | 
[V:3] z12 :
[V:4] z12 | 
[V:1] G3AB3cd3c | 
[V:2] G2B3cd3cBA | 
[V:3] z12 :
[V:4] z12 | 
[V:1] B2A3GA3E^F2 | 
[V:2] G2d3Bc2A4 | 
[V:3] z12 | 
[V:4] z12 | 
[V:1] G2B2A4z2d2- | 
[V:2] z2d4c2B2AG | 
[V:3] z12 :
[V:4] z12 | 
[V:1] d2c2B2AGF2A2 | 
[V:2] F2A2G2B3Ac2 | 
[V:3] z12 :
[V:4] z12 | 
[V:1] G2B3AG4^F2 | 
[V:2] B2d3cB2A4 | 
[V:3] z12 | 
[V:4] z12 | 
[V:1] G12 | 
[V:2] G4z4z4 | 
[V:3] G8G4 :
[V:4] G,8E,4- | 
[V:1] z12 | 
[V:2] g4f2a3gfe | 
[V:3] c8c4 :
[V:4] E,4F,8 | 
[V:1] z4z4A4 | 
[V:2] d4c2f3ec2 | 
[V:3] B4A8 | 
[V:4] G,2F,G,A,2F,4E,2 | 
[V:1] B4A2c2B2G2 | 
[V:2] B2d3cA2G2B2- | 
[V:3] G4z4z4 :
[V:4] G,4F,4G,4 | 
[V:1] F2A4G4^F2 | 
[V:2] BAF2G4A4 | 
[V:3] z12 :
[V:4] D,4E,4D,4 | 
[V:1] G6A2B2AG | 
[V:2] G4z2d4c2 | 
[V:3] d4d4G4 | 
[V:4] z2G,4F,2_E,4 | 
[V:1] F4z4z4 | 
[V:2] d3cB2G2A4 | 
[V:3] z4d4d4 :
[V:4] D,6G,4^F,2 | 
[V:1] B4c3BA3G | 
[V:2] G4z2g2f2d2- | 
[V:3] d4c8 :
[V:4] G,4E,4F,4 | 
[V:1] G2FGAG^FEF3E | 
[V:2] dce2f2d3cBA | 
[V:3] B4A8 | 
[V:4] G,4D,8 | 
[V:1] G4z2G4A2 | 
[V:2] B6G2B3c | 
[V:3] G12 :
[V:4] D4D4D4 | 
[V:1] B3cd3cA2B2- | 
[V:2] d4d4d4 | 
[V:3] z12 :
[V:4] G,2B,3A,G,2F,2G,2- | 
[V:1] B2A2D2G4^F2 | 
[V:2] G2d4B2A4 | 
[V:3] d4d4d4 | 
[V:4] G,F,D,2F,2G,2D,4 | 
[V:1] G6B3AG2 | 
[V:2] B2d3cB3GB2 | 
[V:3] G12 :
[V:4] z2G,2B,3CD4 | 
[V:1] A2c4B2A4 | 
[V:2] A2a3gg3^f^fe | 
[V:3] z12 :
[V:4] C2A,4B,2C2D2 | 
[V:1] G4z4z4 | 
[V:2] g4z4z4 | 
[V:3] g8g4 | 
[V:4] G,6B,4C2 | 
[V:1] z4z4A4 | 
[V:2] z4z4c4 | 
[V:3] f8f4 :
[V:4] A,2D4B,2A,4 | 
[V:1] B2d4c2B2AG | 
[V:2] d4e4d2e2 | 
[V:3] g8g4 :
[V:4] G,6A,2B,2C2 | 
[V:1] F2A3GG4^F2 | 
[V:2] f4-(3:2:5f2e2d2c4B2 | 
[V:3] d8z4 | 
[V:4] D3CB,2G,2A,4 | 
[V:1] G6A2B2AG | 
[V:2] d2e3dd4c2 | 
[V:3] g8g4 :
[V:4] G,6F,2_E,4 | 
[V:1] A2d4c2A4 | 
[V:2] z2d2B2c2d4 | 
[V:3] f8f4 :
[V:4] D,4z4D,4 | 
[V:1] z2G3AB4G2 | 
[V:2] G4z2G4A2 | 
[V:3] g8g4 | 
[V:4] E,3F,G,3A,B,3C | 
[V:1] F2B3cd3cA2 | 
[V:2] B2d3cB2A4 | 
[V:3] d12 :
[V:4] D2B,3A,G,4F,2 | 
[V:1] B2AGF2G2A2B2- | 
[V:2] G2d4_e2f2d2- | 
[V:3] z12 :
[V:4] G,2F,E,D,2G,2F,2G,2- | 
[V:1] BAc3BAG^F3E | 
[V:2] dc_e3dcBA4 | 
[V:3] z12 | 
[V:4] G,2C,4G,2D,4 | 
[V:1] G12 ||  
[V:2] G12 ||  
[V:3] d12 ||  
[V:4] z2B,2B,4G,4 ||  
[V:1]  [K:F] [K:clef=treble][M:3/1]z4z4d4 | 
[V:2]  [K:F] [K:clef=treble-8][M:3/1]d4c2B4G2 | 
[V:3]  [K:F] [K:clef=treble-8][M:3/1]z12 | 
[V:4]  [K:F] [K:clef=bass][M:3/1]z12 | 
[V:1] c2B4G2A2B2 | 
[V:2] A2B2G4F2G2 | 
[V:3] z12 | 
[V:4] z12 | 
[V:1] G2F2A3GE4 | 
[V:2] B2A4d4c2 | 
[V:3] z12 | 
[V:4] z12 | 
[V:1] D4z2A2B2c2 | 
[V:2] d2a3gf2e4 | 
[V:3] z12 | 
[V:4] z12 | 
[V:1] d2G2A2B2c2F2 | 
[V:2] d2e2f2g2c2d2 | 
[V:3] z12 | 
[V:4] z12 | 
[V:1] G2A2B3AB2c2- | 
[V:2] e2f2B2c2d2cB | 
[V:3] z12 | 
[V:4] z12 | 
[V:1] cBA4G2A4 | 
[V:2] A2c2B4A2d2- | 
[V:3] z12 | 
[V:4] z12 | 
[V:1] z4d4c2A2 | 
[V:2] dcA2B4A4 | 
[V:3] z12 | 
[V:4] z12 | 
[V:1] B4A4G2d2- | 
[V:2] G2d4c2B2AG | 
[V:3] z12 | 
[V:4] z12 | 
[V:1] d2c2B2AGF3E | 
[V:2] ^F3EG4z2d2 | 
[V:3] z12 | 
[V:4] z12 | 
[V:1] G2A2B2c3BAG | 
[V:2] e2f2g2e3dcB | 
[V:3] z12 | 
[V:4] z12 | 
[V:1] F4G4A4 | 
[V:2] A2d2e2g4^f2 | 
[V:3] z12 | 
[V:4] z12 | 
[V:1] G12 | 
[V:2] g4z4e2f2 | 
[V:3] z12 | 
[V:4] G,3A,B,2C4B,A, | 
[V:1] z12 | 
[V:2] g2d2edcBA2B2- | 
[V:3] z12 | 
[V:4] G,3F,G,2E,2F,2G,2- | 
[V:1] z12 | 
[V:2] B2AGF2G4^F2 | 
[V:3] z12 | 
[V:4] G,2B,2A,2G,2A,4 | 
[V:1] z12 | 
[V:2] G2B2c2d3cB2 | 
[V:3] z12 | 
[V:4] G,4E,2D,2F,2G,2 | 
[V:1] z12 | 
[V:2] A2B2c2d3Bc2 | 
[V:3] z12 | 
[V:4] A,2G,2F,2D,2_E,3D, | 
[V:1] z12 | 
[V:2] d2e2f2ed^c3=B | 
[V:3] z12 | 
[V:4] B,,2C,2D,2F,2E,4 | 
[V:1] z12 | 
[V:2] d8z2d2- | 
[V:3] z12 | 
[V:4] z2D,4F,2E,2G,2 | 
[V:1] z12 | 
[V:2] d2f2e2g2f2a2- | 
[V:3] z12 | 
[V:4] F,2A,3G,E,2D,2F,2- | 
[V:1] z12 | 
[V:2] age2f2edc2d2 | 
[V:3] z12 | 
[V:4] F,E,C,2D,2F,2E,2D,2 | 
[V:1] z12 | 
[V:2] f2e3dd4^c2 | 
[V:3] z12 | 
[V:4] A,3G,A,2F,2E,4 | 
[V:1] F4G2A4B2 | 
[V:2] d4z4z4 | 
[V:3] z12 | 
[V:4] D,4E,2D,2F,2G,2 | 
[V:1] c2BAG2F2E4 | 
[V:2] A4B2d4^c2 | 
[V:3] z12 | 
[V:4] A,2G,F,E,2F,2G,2A,2 | 
[V:1] z2A4G2A2c2 | 
[V:2] d3cA2c3BA2 | 
[V:3] z12 | 
[V:4] D,4z4z4 | 
[V:1] B2A2B2AGF3G | 
[V:2] G2F2G2B2A2d2- | 
[V:3] z12 | 
[V:4] z4z4z2D,2- | 
[V:1] B2A3GG3^FFE | 
[V:2] d2c2B2G2A4 | 
[V:3] z12 | 
[V:4] D,E,F,2G,2E,2D,4 | 
[V:1] G12- | 
[V:2] G12- | 
[V:3] z12 | 
[V:4] G,12 | 
[V:1] G12 ||  
[V:2] G12 ||  
[V:3] z12 ||  
[V:4] D12 ||  
[V:1]  [K:F] [K:clef=treble][M:2/1]G8 :
[V:2]  [K:F] [K:clef=treble-8][M:2/1]g8 :
[V:3]  [K:F] [K:clef=treble-8][M:2/1]z8 :
[V:4]  [K:F] [K:clef=bass][M:2/1]G,8 :
[V:1] A4G4 :
[V:2] f4g4- :
[V:3] x8 :
[V:4] D4B,4- :
[V:1] B4c4 | 
[V:2] g4e4 | 
[V:3] z8 :
[V:4] B,2G,2A,4 | 
[V:1] d4_e4- :
[V:2] d4c4 :
[V:3] x8 :
[V:4] B,4C4 :
[V:1] e2d2d4- :
[V:2] f8 :
[V:3] z8 :
[V:4] D8 :
[V:1] d2cBcBAG | 
[V:2] e8 | 
[V:3] g8 | 
[V:4] z8 | 
[V:1] F8 :
[V:2] z4d4 :
[V:3] a8- :
[V:4] D8 :
[V:1] z4c4 :
[V:2] e4e2f2- :
[V:3] a8 :
[V:4] C4A,4 :
[V:1] d4e4 | 
[V:2] f2d2c4 | 
[V:3] g8 :
[V:4] B,4C4 | 
[V:1] A4d4- :
[V:2] z2f4g2 :
[V:3] f8 :
[V:4] D6C2 :
[V:1] d2c2e4- :
[V:2] a2gfe2dc :
[V:3] e8- :
[V:4] A,3B,C2A,2- :
[V:1] e2=B2^c4 | 
[V:2] B4A4 | 
[V:3] e8 | 
[V:4] A,2G,2A,4 | 
[V:1] d8 :
[V:2] z2d2f2g2 :
[V:3] d8- :
[V:4] D,6E,2 :
[V:1] z4B4 :
[V:2] a4d4- :
[V:3] d8- :
[V:4] F,4G,4- :
[V:1] G4A4 | 
[V:2] d2B2A2d2- | 
[V:3] d8 :
[V:4] G,4F,4 | 
[V:1] B4-(3B2A2G2 :
[V:2] d2cBc4 :
[V:3] z8 :
[V:4] E,8 :
[V:1] F2A3GF2 :
[V:2] z2f3ed2- :
[V:3] z8 :
[V:4] D,4z4 :
[V:1] E4z2A2- | 
[V:2] d2c2d3e | 
[V:3] x8 | 
[V:4] A,4F,3G, | 
[V:1] A2G2B2c2 :
[V:2] f2g4e2 :
[V:3] z8 :
[V:4] A,2B,3G,A,2 :
[V:1] d4B2A2 :
[V:2] d2f2g2a2- :
[V:3] x8 :
[V:4] F,3D,E,2F,2- :
[V:1] c2d2e3d | 
[V:2] a2f2e3f | 
[V:3] z8 :
[V:4] F,E,D,2C,3D, | 
[V:1] B2A4B2 :
[V:2] g2a4d2- :
[V:3] x8 :
[V:4] E,2F,4G,2 :
[V:1] A2d3cB2- :
[V:2] d2f2e2d2- :
[V:3] z8 :
[V:4] F,2D,2E,2G,2- :
[V:1] BAG4^F2 | 
[V:2] dcB2A4 | 
[V:3] x8 | 
[V:4] G,F,G,2D,4 | 
[V:1] G8 :
[V:2] z4G4 :
[V:3] G8- :
[V:4] G,4z4 :
[V:1] z8 :
[V:2] B6c2 :
[V:3] G8 :
[V:4] D6C2 :
[V:1] G8 | 
[V:2] (3:2:5d4_e2d2c2B2 | 
[V:3] G8 :
[V:4] B,3A,B,2A,G, | 
[V:1] A8- :
[V:2] A4z2F2- :
[V:3] c8- :
[V:4] F,6A,2- :
[V:1] A4A4 :
[V:2] F2G2A2c2- :
[V:3] c8 :
[V:4] A,2G,2F,3E, :
[V:1] A8 | 
[V:2] cBG2A4 | 
[V:3] c8 | 
[V:4] F,2G,4^F,2 | 
[V:1] B4-(3B2A2G2 :
[V:2] G2g3fed :
[V:3] B8 :
[V:4] G,8 :
[V:1] F2A3Bc2- :
[V:2] c2f3ga2- :
[V:3] A8- :
[V:4] z8 :
[V:1] c2d2c2BA | 
[V:2] age2f4 | 
[V:3] A8 :
[V:4] C8 | 
[V:1] B6c2 :
[V:2] g2g4fe :
[V:3] G8- :
[V:4] D8 :
[V:1] d4d4 :
[V:2] d8 :
[V:3] G8- :
[V:4] B,6C2 :
[V:1] G4B4- | 
[V:2] z4B4- | 
[V:3] G8 | 
[V:4] D4D4 | 
[V:1] B2A2A4- :
[V:2] B2c2d4 :
[V:3] z8 :
[V:4] G,4F,4 :
[V:1] A2G2G4- :
[V:2] _e4d4- :
[V:3] x8 :
[V:4] G,4B,4 :
[V:1] G2^F2F2E2 | 
[V:2] d4c4 | 
[V:3] z8 :
[V:4] A,8 | 
[V:1] G4-(3G2F2E2 :
[V:2] B6AG :
[V:3] x8 :
[V:4] G,8 :
[V:1] D4(3:2:2E2F4 :
[V:2] A4B2d2- :
[V:3] z8 :
[V:4] F,4D,4 :
[V:1] G4-(3G2F2E2 | 
[V:2] d2cBcBAG | 
[V:3] x8 | 
[V:4] E,8 | 
[V:1] F8 :
[V:2] F6G2 :
[V:3] d8 :
[V:4] D,6E,2 :
[V:1] z8 :
[V:2] A2B3cd2- :
[V:3] d8 :
[V:4] F,2G,3A,B,2- :
[V:1] G8 | 
[V:2] dc_e3Bc2 | 
[V:3] G8 :
[V:4] B,A,G,F,_E,4 | 
[V:1] F4B4 :
[V:2] d4z2d2- :
[V:3] z8 :
[V:4] D,4G,4 :
[V:1] A4G2B2 :
[V:2] d2c2B2AG :
[V:3] d8 :
[V:4] F,4G,4 :
[V:1] A2G4F2 | 
[V:2] F2G2A4 | 
[V:3] d8 | 
[V:4] D,8 | 
[V:1] G3AB2AB :
[V:2] G8 :
[V:3] d8 :
[V:4] z4G,4 :
[V:1] c6BA :
[V:2] z4c4- :
[V:3] c8- :
[V:4] A,6G,F, :
[V:1] G4A4 | 
[V:2] c2B2A3G | 
[V:3] c8 :
[V:4] E,4F,4 | 
[V:1] B3cB2AG :
[V:2] G6d2- :
[V:3] B8 :
[V:4] G,2E,3F,G,2 :
[V:1] F2A3Bc2- :
[V:2] d2c2d2f2 :
[V:3] A8- :
[V:4] D,2F,4E,D, :
[V:1] cBAG^F3E | 
[V:2] e4d4 | 
[V:3] A8 | 
[V:4] C,3B,,D,4 | 
[V:1] G8- :
[V:2] _e8 :
[V:3] G8- :
[V:4] z4G,4 :
[V:1] G8 ||  
[V:2] d8 ||  
[V:3] G8 ||  
[V:4] G,8 ||  
[V:1]  [K:F] [K:clef=treble][M:2/1]G6A2 | 
[V:2]  [K:F] [K:clef=treble-8][M:2/1]G8 | 
[V:3]  [K:F] [K:clef=treble-8][M:2/1]z8 | 
[V:4]  [K:F] [K:clef=bass][M:2/1]z8 | 
[V:1] B4c4- | 
[V:2] d4e4 | 
[V:3] z8 | 
[V:4] z8 | 
[V:1] c2d2c2BA | 
[V:2] f8 | 
[V:3] z8 | 
[V:4] z8 | 
[V:1] B2G2A2B2 | 
[V:2] g4f2g2- | 
[V:3] z8 | 
[V:4] z8 | 
[V:1] G4z2F2- | 
[V:2] g2e2d4 | 
[V:3] z8 | 
[V:4] z8 | 
[V:1] FGA3GE2 | 
[V:2] z4c4 | 
[V:3] z8 | 
[V:4] z8 | 
[V:1] D2C2E2F2 | 
[V:2] B2c4A2 | 
[V:3] z8 | 
[V:4] z8 | 
[V:1] G4E2D2 | 
[V:2] G2c3Bd2- | 
[V:3] z8 | 
[V:4] z8 | 
[V:1] F2G2A3G | 
[V:2] dcB2A3B | 
[V:3] z8 | 
[V:4] z8 | 
[V:1] FED2z2A2 | 
[V:2] c2d4F2 | 
[V:3] z8 | 
[V:4] z8 | 
[V:1] B2G4^F2 | 
[V:2] G2B2A4 | 
[V:3] z8 | 
[V:4] z8 | 
[V:1] G2D2G2B2 | 
[V:2] G4z2d2- | 
[V:3] z8 | 
[V:4] z8 | 
[V:1] A4z2d2- | 
[V:2] d2c2B2G2 | 
[V:3] z8 | 
[V:4] z8 | 
[V:1] d2c2B2G2 | 
[V:2] A4G2c2- | 
[V:3] z8 | 
[V:4] z8 | 
[V:1] A4G2c2- | 
[V:2] c2d2e4 | 
[V:3] z8 | 
[V:4] z8 | 
[V:1] c2A2B2AG | 
[V:2] f4g2fe | 
[V:3] z8 | 
[V:4] z8 | 
[V:1] F2E2F2G2- | 
[V:2] d2cBA2B2- | 
[V:3] z8 | 
[V:4] z8 | 
[V:1] G2B2A2c2 | 
[V:2] B2AGF2A2 | 
[V:3] z8 | 
[V:4] z8 | 
[V:1] B2G4^F2 | 
[V:2] G2B2A4 | 
[V:3] z8 | 
[V:4] z4C4 | 
[V:1] G4z4 | 
[V:2] G2B2c2d2- | 
[V:3] z8 | 
[V:4] B,2G,2A,2B,2- | 
[V:1] z8 | 
[V:2] d_edc/B/A3G | 
[V:3] z8 | 
[V:4] B,2A,G,F,3E, | 
[V:1] z8 | 
[V:2] G4A2B2- | 
[V:3] z8 | 
[V:4] G,2B,2C2D2- | 
[V:1] z4c4 | 
[V:2] B2AG^F3E | 
[V:3] z8 | 
[V:4] D_EDC/B,/A,3G, | 
[V:1] B2d3cB2- | 
[V:2] G8 | 
[V:3] z8 | 
[V:4] G,4z2G,2 | 
[V:1] BAG2F2A2- | 
[V:2] z8 | 
[V:3] z8 | 
[V:4] B,2C2D3C | 
[V:1] AGE3FG2- | 
[V:2] z8 | 
[V:3] z8 | 
[V:4] A,3B,C3B, | 
[V:1] GFD2F2E2- | 
[V:2] z8 | 
[V:3] z8 | 
[V:4] G,3F,D,2C,2 | 
[V:1] E2D4^C2 | 
[V:2] z4g4 | 
[V:3] z8 | 
[V:4] D,2F,2E,4 | 
[V:1] D4z4 | 
[V:2] f6ed | 
[V:3] z8 | 
[V:4] z2D,3E,F,G, | 
[V:1] z8 | 
[V:2] c3de2f2 | 
[V:3] z8 | 
[V:4] A,3B,C2D2 | 
[V:1] z8 | 
[V:2] g2a3gb2 | 
[V:3] z8 | 
[V:4] E2F3EDC | 
[V:1] z4A4 | 
[V:2] a2g4^f2 | 
[V:3] z8 | 
[V:4] D3C/B,/A,4 | 
[V:1] B3cB2AG | 
[V:2] g6fe | 
[V:3] z8 | 
[V:4] G,8 | 
[V:1] F2A2G2B2 | 
[V:2] d3cB2AG | 
[V:3] z8 | 
[V:4] z8 | 
[V:1] c2A3GB2- | 
[V:2] F2c4B2 | 
[V:3] z8 | 
[V:4] z2F,4G,2 | 
[V:1] BcBA/G/^F3E | 
[V:2] G2B2A4 | 
[V:3] z8 | 
[V:4] E,2G,2D,4 | 
[V:1] G8 ||  
[V:2] G8 ||  
[V:3] z8 ||  
[V:4] G,8 ||  



